X:1
T:Gypsy Davy
M:2/4
L:1/8
K:D
 D/2D/2| FA A B/2A/2| FED-D| F A/2A/2 BA| F A2| D/2D/2| FA A B/2A/2|\
 FE DD| E E/2E/2 B,C| D2 F| F| E E/2E/2 B,C| D3||
